X:34
T:Coral Riff
M:4/4
L:1/4
R:An Dro / March
K:EDor
"Em"E2 DE | B,DE "G"G- | GA DE  | "A"B,A,A,D |
"Em"E2 DE | B,D (3EFG | "A"A>GED  |1"Em"EGFD :|2 "Em"E2 GA ||
  |: "Em"B2 AG | B2 EG | "A"BA A2-|
  |1 A2 GA | "Em"B2 AG | B2 EG | "A"A>GED  | "Em"E2 GA :|
  |2-A2 FD | "Em"E2 DE | B,D (3EFG | "A"A>GED  | "Em"E4 |

%%newpage
%% header "Pizza Wizards - Waltz		$P"

